X: 29727
T: Nut Tree, The
R: reel
M: 4/4
K: Eminor
|:EFGA B2 cB|A2 BA G2 E2|EFGA B2 cB|A2 d2 d4|
EFGA B2 cB|A2 BA G2 E2|cBAG F2 AB|G2 E2 E4:|
|:e2 ee e2 de|f2 e2 d2 B2|Bd d2 d2 ed|B2 e2 e4|
e2 ee e2 de|f2 e2 d2 B2|cBAG F2 AB|G2 E2 E4:|

